X: 31784
T: Patrick's Night
R: reel
M: 4/4
K: Dmajor
|:A|BG ~G2 AGED|G2(3Bcd egge|dB ~B2 gedB|+slide+A2 GB AGED|
BG ~G2 AGED|+slide+G2 (3Bcd egge|dB ~B2 gedB|1 AGAB ~G3:|2 AGAB G2(3Bcd||
|:+slide+g2 ag gedB|GB ~B2 GA (3Bcd|+slide+g2 ag gedg|eA B/^c/d eaaf|
+slide+gbaf ~g2 ge|dB ~B2 gedB|GA B/^c/d gedB|1 AGAB +slide+G2 (3Bcd:|2 AGAB ~G3||

